X: 2518
T: Ballydesmond, The
R: polka
M: 2/4
K: Adorian
|:A/B/|c d/c/ B c/B/|A B/A/ G>A|Bd ed|g2 e>d|
ea ge|d B/A/ G A/B/|c d/e/ dB|A2 A2/:|
|:d|ea a g/e/|dg gd|ea af|g2 e>d|
ea ge|d B/A/ G A/B/|c d/e/ dB|A2- [1 A2/:|2 a2||

